src/images/single-assets/GHST.svg

<svg width="64" height="64" viewBox="0 0 64 64" fill="none" xmlns="http://www.w3.org/2000/svg">
<g clip-path="url(#clip0_7737_70)">
<path d="M32 64C49.6731 64 64 49.6731 64 32C64 14.3269 49.6731 0 32 0C14.3269 0 0 14.3269 0 32C0 49.6731 14.3269 64 32 64Z" fill="url(#paint0_linear_7737_70)"/>
<path opacity="0.25" d="M51.8465 21.0472C50.2559 19.4238 48.1682 18.4062 45.9316 18.1642C43.6951 17.9224 41.4449 18.4708 39.5565 19.7181C41.6022 22.0889 42.6873 25.1658 42.5914 28.3239C42.4956 31.482 41.2261 34.4845 39.0407 36.7215L33.0869 42.8006L35.0848 44.8405L35.9024 44.0056L37.9466 46.0929L37.1291 46.9277L38.7646 48.5975L51.8468 35.2403C53.69 33.358 54.7254 30.8053 54.7253 28.1436C54.7253 25.482 53.6898 22.9294 51.8465 21.0472Z" fill="black"/>
<path opacity="0.25" d="M37.3864 20.8412C36.4738 19.9093 35.3903 19.1701 34.1979 18.6658C33.0053 18.1614 31.7273 17.9019 30.4366 17.9019C29.1458 17.9019 27.8678 18.1614 26.6752 18.6658C25.4828 19.1701 24.3993 19.9093 23.4866 20.8412L10.4043 34.1986L12.0398 35.8679L12.8573 35.0332L14.9016 37.1205L14.084 37.9552L16.1283 40.0424L16.9459 39.2076L19.3989 41.7123L18.5814 42.5471L20.6257 44.6343L21.4433 43.7995L23.4875 45.8864L22.6699 46.7212L24.3054 48.391L37.3877 35.0336C39.2306 33.1513 40.2657 30.5986 40.2655 27.9371C40.2652 25.2756 39.2296 22.7232 37.3864 20.8412Z" fill="black"/>
<path d="M50.7166 19.8934C49.1261 18.2699 47.0384 17.2523 44.8018 17.0105C42.5653 16.7685 40.3151 17.317 38.4267 18.5642C40.4724 20.935 41.5575 24.0121 41.4616 27.1702C41.3658 30.3283 40.0962 33.3307 37.9108 35.5677L31.957 41.6467L33.9549 43.6866L34.7725 42.852L36.8168 44.939L35.9992 45.7738L37.6347 47.4437L50.7171 34.0863C52.5602 32.2041 53.5956 29.6514 53.5955 26.9898C53.5954 24.3281 52.5599 21.7756 50.7166 19.8934Z" fill="#D7D7D7"/>
<path d="M50.7166 19.8934C49.1261 18.2699 47.0384 17.2523 44.8018 17.0105C42.5653 16.7685 40.3151 17.317 38.4267 18.5642C40.4724 20.935 41.5575 24.0121 41.4616 27.1702C41.3658 30.3283 40.0962 33.3307 37.9108 35.5677L31.957 41.6466L32.825 42.5329L33.6425 41.6981L36.8168 44.939L35.9992 45.7738L36.5043 46.2895L49.5867 32.9322C53.4251 29.0127 54.555 23.8125 50.7166 19.8934Z" fill="white"/>
<path d="M36.2576 19.6874C35.345 18.7554 34.2615 18.0163 33.069 17.512C31.8765 17.0076 30.5985 16.748 29.3077 16.748C28.017 16.748 26.7389 17.0076 25.5464 17.512C24.354 18.0163 23.2704 18.7554 22.3578 19.6874L9.27539 33.0447L10.9105 34.7146L11.728 33.8797L13.7723 35.9672L12.9547 36.8019L14.999 38.8891L15.8165 38.0544L18.2696 40.559L17.452 41.3937L19.4964 43.4809L20.3139 42.6461L22.3582 44.7334L21.5406 45.5682L23.1761 47.238L36.2584 33.8807C38.1014 31.9983 39.1367 29.4455 39.1365 26.7838C39.1364 24.1222 38.1008 21.5696 36.2576 19.6874Z" fill="#D7D7D7"/>
<path d="M36.2576 19.6874C35.345 18.7554 34.2615 18.0163 33.069 17.512C31.8765 17.0076 30.5985 16.748 29.3077 16.748C28.017 16.748 26.7389 17.0076 25.5464 17.512C24.354 18.0163 23.2705 18.7554 22.3578 19.6874L9.27539 33.0447L9.78048 33.5603L10.5981 32.7256L13.7723 35.9666L12.9547 36.8015L13.8685 37.7345L14.6861 36.8998L18.2692 40.5581L17.4517 41.3928L18.3655 42.3259L19.183 41.4911L22.3573 44.7323L21.5398 45.567L22.0448 46.0826L35.1272 32.7253C38.966 28.8065 40.0961 23.6064 36.2576 19.6874Z" fill="white"/>
</g>
<defs>
<linearGradient id="paint0_linear_7737_70" x1="22.8203" y1="3.12853" x2="41.8151" y2="62.8702" gradientUnits="userSpaceOnUse">
<stop offset="0.15709" stop-color="#FF1DFF"/>
<stop offset="1" stop-color="#672EEB"/>
</linearGradient>
<clipPath id="clip0_7737_70">
<rect width="64" height="64" fill="white"/>
</clipPath>
</defs>
</svg>

<svg xmlns="http://www.w3.org/2000/svg" width="64" height="64" fill="none"><g clip-path="url(#a)"><path fill="url(#b)" d="M32 64c17.673 0 32-14.327 32-32S49.673 0 32 0 0 14.327 0 32s14.327 32 32 32"/><path fill="#000" d="M51.847 21.047a9.75 9.75 0 0 0-5.915-2.883 9.67 9.67 0 0 0-6.376 1.554 12.6 12.6 0 0 1 3.035 8.606 12.56 12.56 0 0 1-3.55 8.397l-5.954 6.08 1.998 2.04.817-.835 2.045 2.087-.818.835 1.636 1.67L51.847 35.24a10.15 10.15 0 0 0 2.878-7.096c0-2.662-1.035-5.215-2.879-7.097" opacity=".25"/><path fill="#000" d="M37.386 20.841a9.8 9.8 0 0 0-3.188-2.175 9.65 9.65 0 0 0-7.523 0 9.8 9.8 0 0 0-3.188 2.175L10.404 34.2l1.636 1.669.817-.835 2.045 2.087-.818.835 2.044 2.087.818-.834 2.453 2.504-.818.835 2.045 2.087.817-.834 2.044 2.086-.817.835 1.635 1.67 13.083-13.357a10.15 10.15 0 0 0 2.878-7.097c0-2.661-1.036-5.214-2.88-7.096" opacity=".25"/><path fill="#D7D7D7" d="M50.717 19.893a9.75 9.75 0 0 0-5.915-2.883 9.67 9.67 0 0 0-6.375 1.554 12.6 12.6 0 0 1 3.035 8.606 12.56 12.56 0 0 1-3.551 8.398l-5.954 6.079 1.998 2.04.818-.835 2.044 2.087-.818.835 1.636 1.67 13.082-13.358a10.14 10.14 0 0 0 2.879-7.096c0-2.662-1.036-5.214-2.88-7.097"/><path fill="#fff" d="M50.717 19.893a9.75 9.75 0 0 0-5.915-2.883 9.67 9.67 0 0 0-6.375 1.554 12.6 12.6 0 0 1 3.035 8.606 12.56 12.56 0 0 1-3.551 8.398l-5.954 6.079.868.886.817-.835 3.175 3.241-.818.835.505.515 13.083-13.357c3.838-3.92 4.968-9.12 1.13-13.039"/><path fill="#D7D7D7" d="M36.258 19.687a9.8 9.8 0 0 0-3.189-2.175 9.65 9.65 0 0 0-7.523 0 9.8 9.8 0 0 0-3.188 2.175L9.275 33.045l1.636 1.67.817-.835 2.044 2.087-.817.835 2.044 2.087.817-.835 2.454 2.505-.818.835 2.044 2.087.818-.835 2.044 2.087-.817.835 1.635 1.67 13.082-13.357a10.15 10.15 0 0 0 2.878-7.097c0-2.662-1.035-5.214-2.878-7.097"/><path fill="#fff" d="M36.258 19.687a9.8 9.8 0 0 0-3.189-2.175 9.65 9.65 0 0 0-7.523 0 9.8 9.8 0 0 0-3.188 2.175L9.275 33.045l.505.515.818-.834 3.174 3.24-.817.835.913.933.818-.834 3.583 3.658-.817.835.913.933.818-.835 3.174 3.241-.817.835.505.516 13.082-13.358c3.839-3.919 4.97-9.119 1.13-13.038"/></g><defs><linearGradient id="b" x1="22.82" x2="41.815" y1="3.129" y2="62.87" gradientUnits="userSpaceOnUse"><stop offset=".157" stop-color="#FF1DFF"/><stop offset="1" stop-color="#672EEB"/></linearGradient><clipPath id="a"><path fill="#fff" d="M0 0h64v64H0z"/></clipPath></defs></svg>
